X:57
T:Militia March,The. BC.57
M:C|
L:1/8
Q:200
S:Benjamin Cooke MS.circa 1770, F.Kidson Coll.
R:March
O:England
A:x
Z:vmp.John Bagnall
K:D
A2 | d6 fe | d6 A2 | d2 cB AGFE | D6 e2 |
 f6 ag | f6 ag | fgab a2 T^g2 |a6 :|
|:fg | a6 ba | g6 ag | f2 ed fagf | e4 z2 fg |
 a2 gf g2 ef | g2 fe f2 de | fgab f2 Te>d | d6:|]

